assets/images/icons/cf_icon_cli_grey.svg

<svg enable-background="new 0 0 141.7 141.7" viewBox="0 0 141.7 141.7" xmlns="http://www.w3.org/2000/svg"><g fill="#818181"><path d="m125.8 15.9h-109.9c-5.1 0-9.2 4.1-9.2 9.2v91.6c0 5.1 4.1 9.2 9.2 9.2h109.9c5.1 0 9.2-4.1 9.2-9.2v-91.7c0-5-4.1-9.1-9.2-9.1zm-89.3 6.9c2.5 0 4.6 2 4.6 4.6 0 2.5-2.1 4.6-4.6 4.6s-4.6-2-4.6-4.6 2.1-4.6 4.6-4.6zm-13.7 0c2.5 0 4.6 2 4.6 4.6 0 2.5-2 4.6-4.6 4.6s-4.6-2-4.6-4.6 2-4.6 4.6-4.6zm103 93.9h-109.9v-77.8h109.9z"/><path d="m58.1 57.7-29.4-13.4v6.5l22.7 9.7v.1l-22.7 9.7v6.5l29.4-13.5z"/><path d="m71.9 57.4h16v6.2h-16z"/></g></svg>

<?xml version="1.0" encoding="utf-8"?>
<!-- Generator: Adobe Illustrator 18.1.1, SVG Export Plug-In . SVG Version: 6.00 Build 0)  -->
<svg version="1.1" id="Capa_1" xmlns="http://www.w3.org/2000/svg" xmlns:xlink="http://www.w3.org/1999/xlink" x="0px" y="0px"
	 viewBox="0 0 141.7 141.7" enable-background="new 0 0 141.7 141.7" xml:space="preserve">
<g>
	<g id="c43_terminal">
		<path fill="#818181" d="M125.8,15.9H15.9c-5.1,0-9.2,4.1-9.2,9.2v91.6c0,5.1,4.1,9.2,9.2,9.2h109.9c5.1,0,9.2-4.1,9.2-9.2V25
			C135,20,130.9,15.9,125.8,15.9z M36.5,22.8c2.5,0,4.6,2,4.6,4.6c0,2.5-2.1,4.6-4.6,4.6c-2.5,0-4.6-2-4.6-4.6
			C31.9,24.8,34,22.8,36.5,22.8z M22.8,22.8c2.5,0,4.6,2,4.6,4.6c0,2.5-2,4.6-4.6,4.6s-4.6-2-4.6-4.6C18.2,24.8,20.2,22.8,22.8,22.8
			z M125.8,116.7H15.9V38.9h109.9V116.7z"/>
		<polygon fill="#818181" points="58.1,57.7 28.7,44.3 28.7,50.8 51.4,60.5 51.4,60.6 28.7,70.3 28.7,76.8 58.1,63.3 		"/>
		<rect x="71.9" y="57.4" fill="#818181" width="16" height="6.2"/>
	</g>
	<g id="Capa_1_86_">
	</g>
</g>
</svg>
